X: 166
T:Lamb Skinnet
% Nottingham Music Database
S:Alistair A, via EF
Y:AB
M:6/8
K:A
P:A
e|"A"Ace ecA|"D"d2f f2a|"A"Ace ecA|"E7"G2B B2e|
"A"Ace ecA|"D"d2f fga|"E"gfe "B7"fe^d|"E7"e3 e2:|
P:B
f/2g/2|"A"aec aec|"D"d2f f2a|"A"ecA ecA|"E7"G2B Bcd|
"A"ecA ecA|"D"d2f fga|"A"ecA "E7"dBG|"A"A3 A2:|


